dist/svgs/devui-icons/op/bug.svg

<?xml version="1.0" encoding="UTF-8"?>
<svg width="16px" height="16px" viewBox="0 0 16 16" version="1.1" xmlns="http://www.w3.org/2000/svg" xmlns:xlink="http://www.w3.org/1999/xlink">
    <title>操作/bug</title>
    <desc>Created with Sketch.</desc>
    <g id="操作/bug" stroke="none" stroke-width="1" fill="none" fill-rule="evenodd">
        <path d="M8.5,14 L8.5,7 L7.5,7 L7.5,14 L7,14 C5.7862891,13.7522523 4.7508827,13.0498643 4.03776084,12.0975411 L3,12.62 L3,15 L1,15 L1,11.38 L3.1686018,10.2999513 C3.05832649,9.88091086 2.99990929,9.44444229 3,9 L1,9 L1,7 L2.99999996,7 L2.99999992,5.12170339 L0.588382746,2.71008622 L2.00259631,1.29587266 L4.70672365,4 L11.8823882,4 L14.5846901,1.29769806 L15.9989037,2.71191163 L13.0007709,5.71004438 L13,7 L15,7 L15,9 L13,9 C13.0000907,9.44444229 12.9416735,9.88091086 12.8313982,10.2999513 L15,11.38 L15,15 L13,15 L13,12.62 L11.9622392,12.0975411 C11.2491173,13.0498643 10.2137109,13.7522523 9,14 L8.5,14 Z M5,3 C5,1.34314575 6.34314575,0 8,0 C9.65685425,0 11,1.34314575 11,3 L5,3 Z" id="Combined-Shape" fill="#293040" fill-rule="nonzero"></path>
    </g>
</svg>

<svg xmlns="http://www.w3.org/2000/svg" viewBox="0 0 16 16"><path d="M8.5 14V7h-1v7H7a4.947 4.947 0 01-2.962-1.902L3 12.62V15H1v-3.62l2.169-1.08A5.102 5.102 0 013 9H1V7h2V5.122L.588 2.71l1.415-1.414L4.707 4h7.175l2.703-2.702 1.414 1.414L13 5.71V7h2v2h-2c0 .444-.058.88-.169 1.3L15 11.38V15h-2v-2.38l-1.038-.522A4.947 4.947 0 019 14h-.5zM5 3a3 3 0 116 0H5z"/></svg>
